!!!!SEGMENT: pl-kk--kk-i-473--004_kalous-vaclav--missa-solemnis-sanctus.krn
!!!id: 17xx:1875
!!!COM: Kalous, Václav
!!!COM-rism: pe30001658
!!!CDT: 1715-1786
!!!CNT: Czech
!!!OTL: Missa solemnis – Sanctus
!!!PDT:
!!!SMS-siglum: PL-Kk
!!!SMS-shelfmark: Kk.I.473
!!!SMS-variant:
!!!SMS-altvar:
!!!NIFC-rismID: 1001139984
!!!system-decoration: [(s1,s2)][(s3,s4)][(s5,s6,s7,s8)][(s9,s10,s11,s12)]s13
**kern	**fba	**kern	**kern	**kern	**dynam	**kern	**kern	**text	**kern	**text	**kern	**text	**kern	**text	**kern	**kern	**kern	**kern
*part13	*part13	*part12	*part11	*part10	*part10	*part9	*part8	*part8	*part7	*part7	*part6	*part6	*part5	*part5	*part4	*part3	*part2	*part1
*staff13	*staff13	*staff12	*staff11	*staff10	*	*staff9	*staff8	*staff8	*staff7	*staff7	*staff6	*staff6	*staff5	*staff5	*staff4	*staff3	*staff2	*staff1
*I"Organo.	*	*I"Acto Viola IIdo vel Tromb:	*I"Alto Viola Imo vel Tromb:	*I"Violino 2do	*	*I"Violino Primo	*I"Baſso	*	*I"Tenore	*	*I"Alto Conc.[erta]to	*	*I"Canto Conc[erta]to	*	*I"Clarino 2do Ex D.	*I"Clarino Primo in D.	*I"Oboe Secundo.	*I"Oboe Primo
*I'Org.	*	*I'V-la	*I'Va	*I'Vn II	*	*I'Vn I	*I'B.	*	*I'T.	*	*I'A.	*	*I'C.	*	*I'Clno II	*I'Clno I	*I'Ob.	*I'Ob.
*clefF4	*	*clefC3	*clefC3	*clefG2	*	*clefG2	*clefF4	*	*clefC4	*	*clefC3	*	*clefC1	*	*clefG2	*clefG2	*clefG2	*clefG2
*	*	*	*	*	*	*	*	*	*	*	*	*	*	*	*ITrd-1c-2	*ITrd-1c-2	*	*
*k[f#c#]	*	*k[f#c#]	*k[f#c#]	*k[f#c#]	*	*k[f#c#]	*k[f#c#]	*	*k[f#c#]	*	*k[f#c#]	*	*k[f#c#]	*	*k[f#c#]	*k[f#c#]	*k[f#c#]	*k[f#c#]
*M4/4	*	*M4/4	*M4/4	*M4/4	*	*M4/4	*M4/4	*	*M4/4	*	*M4/4	*	*M4/4	*	*M4/4	*M4/4	*M4/4	*M4/4
*met(c)	*	*met(c)	*met(c)	*met(c)	*	*met(c)	*met(c)	*	*met(c)	*	*met(c)	*	*met(c)	*	*met(c)	*met(c)	*met(c)	*met(c)
=1	=1	=1	=1	=1	=1	=1	=1	=1	=1	=1	=1	=1	=1	=1	=1	=1	=1	=1
*2\right	*	*2\right	*2\right	*	*	*2\right	*2\right	*	*2\right	*	*2\right	*	*2\right	*	*2\right	*2\right	*2\right	*2\right
!LO:TX:t=P:problem:all\right, left or middle:global	!	!	!	!LO:TX:t=P:problem:all\right, left or middle:global	!	!	!	!	!LO:TX:t=P:problem:all\right or middle:global	!	!	!	!	!	!LO:TX:t=P:problem:all\right:global	!	!	!
!	!	!	!	!	!	!	!LO:SIC:o=S:v:t=w źródle 'S' znajduje się przed kluczem i oznaczeniem metrum	!	!LO:SIC:o=S:v:t=w źródle 'S' znajduje się przed kluczem i oznaczeniem metrum	!	!LO:SIC:o=S:v:t=w źródle 'S' znajduje się przed kluczem i oznaczeniem metrum	!	!LO:SIC:o=S:v:t=w źródle 'S' znajduje się przed kluczem i oznaczeniem metrum	!	!	!	!	!
!LO:TX:b:Bi:t=Sanctus:rj:problem:'S' po lewej stronie przed kluczem	!	!	!	!	!	!	!	!	!	!	!	!	!	!	!LO:TX:b:Bi:t=Sanctus:rj:problem:'S' po lewej stronie przed kluczem	!LO:TX:b:Bi:t=Sanctus:rj:problem:'S' po lewej stronie przed kluczem	!LO:TX:b:Bi:t=Sanctus:rj:problem:'S' po lewej stronie przed kluczem	!LO:TX:b:Bi:t=Sanctus:rj:problem:'S' po lewej stronie przed kluczem
!	!	!LO:TX:b:Bi:t=Sanctus:rj:problem:'S' po lewej stronie przed kluczem	!LO:TX:b:Bi:t=Sanctus:rj:problem:'S' po lewej stronie przed kluczem	!LO:TX:b:Bi:t=Sanctus.:rj:problem:'S' po lewej stronie przed kluczem	!	!LO:TX:b:Bi:t=Sanctus:rj:problem:'S' po lewej stronie przed kluczem	!	!	!	!	!	!	!	!	!	!	!	!
!LO:TX:a:Bi:t=ad(agio)&colon;:rj	!	!LO:TX:a:Bi:t=adagio:rj	!LO:TX:a:Bi:t=adagio:rj	!LO:TX:a:Bi:t=adagio	!	!LO:TX:a:Bi:t=Adagio	!LO:TX:a:Bi:t=Ada(gio)	!	!LO:TX:a:Bi:t=ada(gio).	!	!LO:TX:a:Bi:t=ada(gio).	!	!LO:TX:a:Bi:t=ada(gio).	!	!LO:TX:a:Bi:t=adagio:rj	!LO:TX:a:Bi:t=ad(agio):rj	!LO:TX:a:Bi:t=adagio:rj	!LO:TX:a:Bi:t=adagio
!LO:TX:a:Bi:t=T(utti)&colon;	!	!	!	!	!	!	!	!	!	!	!	!	!	!	!	!	!	!
2D\	.	4d\	4f#\	2r	.	2r	2D\	San-	2f#\	San-	2a\	San-	2dd\	San-	2dd\	2ff#\	2a/	2dd\
.	.	8d\L	8f#\L	.	.	.	.	.	.	.	.	.	.	.	.	.	.	.
.	.	8d\J	8f#\J	.	.	.	.	.	.	.	.	.	.	.	.	.	.	.
4A\	.	4c#\	4e\	16r	.	16r	4A\	-ctus	4e\	-ctus	4a\	-ctus	4cc#\	-ctus	4a/	4ee\	4a/	4cc#\
!	!	!	!	!LO:TX:b:t=|:problem	!	!LO:TX:a:t=|:problem	!	!	!	!	!	!	!	!	!	!	!	!
.	.	.	.	16a/LL	.	16cc#\LL	.	.	.	.	.	.	.	.	.	.	.	.
.	.	.	.	(<16a/	.	(>16cc#\	.	.	.	.	.	.	.	.	.	.	.	.
.	.	.	.	16b/JJ)	.	16dd\JJ)	.	.	.	.	.	.	.	.	.	.	.	.
4r	.	4r	4r	(>16b\LL	.	(>16dd\LL	4r	.	4r	.	4r	.	4r	.	4r	4r	4r	4r
.	.	.	.	16cc#\)	.	16ee\)	.	.	.	.	.	.	.	.	.	.	.	.
.	.	.	.	(>16cc#\	.	(>16ee\	.	.	.	.	.	.	.	.	.	.	.	.
.	.	.	.	16dd\JJ)	.	16ff#\JJ)	.	.	.	.	.	.	.	.	.	.	.	.
=2	=2	=2	=2	=2	=2	=2	=2	=2	=2	=2	=2	=2	=2	=2	=2	=2	=2	=2
*	*	*	*	*	*	*	*	*ij	*	*ij	*	*ij	*	*ij	*	*	*	*
2D\	.	4d\	4f#\	4dd\	.	4ff#\	2D/	San-	2d\	San-	2a\	San-	2ff#\	San-	2dd\	2ff#\	2dd\	2ff#\
.	.	8d\L	8f#\L	4r	.	4r	.	.	.	.	.	.	.	.	.	.	.	.
.	.	8d\J	8f#\J	.	.	.	.	.	.	.	.	.	.	.	.	.	.	.
4AA/	.	4c#\	4e\	16r	.	16r	4AA/	-ctus	4c#\	-ctus	4a\	-ctus	4ee\	-ctus	4a/	4ee\	4cc#\	4ee\
!	!	!	!	!LO:TX:a:t=|:problem	!	!LO:TX:a:t=|:problem	!	!	!	!	!	!	!	!	!	!	!	!
.	.	.	.	16cc#\LL	.	16ee\LL	.	.	.	.	.	.	.	.	.	.	.	.
.	.	.	.	(>16cc#\	.	(>16ee\	.	.	.	.	.	.	.	.	.	.	.	.
.	.	.	.	16dd\JJ)	.	16ff#\JJ)	.	.	.	.	.	.	.	.	.	.	.	.
*	*	*	*	*	*	*	*	*Xij	*	*Xij	*	*Xij	*	*Xij	*	*	*	*
4r	.	4r	4r	(>16dd\LL	.	(>16ff#\LL	4r	.	4r	.	4r	.	4r	.	4r	4r	4r	4r
.	.	.	.	16ee\)	.	16gg\)	.	.	.	.	.	.	.	.	.	.	.	.
.	.	.	.	(>16ee\	.	(>16gg\	.	.	.	.	.	.	.	.	.	.	.	.
.	.	.	.	16ff#\JJ)	.	16aa\JJ)	.	.	.	.	.	.	.	.	.	.	.	.
=3	=3	=3	=3	=3	=3	=3	=3	=3	=3	=3	=3	=3	=3	=3	=3	=3	=3	=3
8r	.	2r	8r	4ff#\	.	8aa\L	8r	.	8r	.	8r	.	2r	.	8r	8r	2r	4r
*	*	*	*	*	*	*	*	*ij	*	*ij	*	*ij	*	*	*	*	*	*
8F#\L	6	.	4a\	.	.	8aa\	4F#\	San-	4d\	San-	4a\	San-	.	.	8dd\L	8aa\L	.	.
8F#\	.	.	.	8r	.	8aa\	.	.	.	.	.	.	.	.	8dd\	8aa\	.	2aa\
8F#\J	.	.	8a\	8dd\	.	8aa\J	8F#\	-ctus	8d\	-ctus	8a\	-ctus	.	.	8dd\J	8aa\J	.	.
*	*	*	*	*	*	*	*	*Xij	*	*Xij	*	*Xij	*	*	*	*	*	*
*	*	*	*	*	*	*	*	*	*	*	*	*	*	*ij	*	*	*	*
8G\L	9	4.B/	4a\	8b\L	.	8aa\L	4G\	Do-	8.d\	Do-	8a\	Do-	4.b\	San-	8dd\L	8aa\L	4b\	.
8G\	8	.	.	8b\	.	8aa\	.	.	.	.	16g\	-mi-	.	.	8dd\	8aa\	.	.
.	.	.	.	.	.	.	.	.	16d\	-mi-	16f#\	-nus	.	.	.	.	.	.
8G\	.	.	4g\	8ee\	.	8gg\	8G\	-mi-	4e\	-nus	[<4g\	De-	.	.	8ee\	8gg\	4ee\	[>4gg\
8G\J	.	8B/	.	8ee\J	.	8gg\J	8G\	-nus	.	.	.	.	8b\	-ctus	8ee\J	8gg\J	.	.
*	*	*	*	*	*	*	*	*	*	*	*	*	*	*Xij	*	*	*	*
=4	=4	=4	=4	=4	=4	=4	=4	=4	=4	=4	=4	=4	=4	=4	=4	=4	=4	=4
8A\L	7 5	4c#\	4g\	8cc#\L	.	8gg\L	4A\	De-	4e\	De-	4g\]	.	8cc#\	Do-	8ee\L	8gg\L	4cc#\	4gg\]
8A\	.	.	.	8cc#\	.	8gg\	.	.	.	.	.	.	16cc#\	-mi-	8ee\	8gg\	.	.
.	.	.	.	.	.	.	.	.	.	.	.	.	16cc#\	-nus	.	.	.	.
8B\	4/ x	2d\	4f#\	8dd\	.	8ff#\	4B\	-us	4d\	-us	4f#\	-us	8dd\	De-	8dd\	8ff#\	2dd\	4ff#\
8B\J	.	.	.	8dd\J	.	8ff#\J	.	.	.	.	.	.	8dd\	-us	8dd\J	8ff#\J	.	.
!	!	!	!	!	!	!	!	!	!	!	!	!	!	!	!LO:TX:a:t=P:problem:mixed beam	!	!	!
8G\L	.	.	4.e\	8dd\L	.	8ee\L	4G\	sa-	4.e\	Sa-	4b\	Sa-	4.dd\	Sa-	8dd\L	8ee\L	.	4.ee\
8G\	6\ 5	.	.	8dd\	.	8ee\	.	.	.	.	.	.	.	.	8dd\	8ee\	.	.
8A\	.	4c#\	.	8cc#\	.	8ee\	8.A\	-ba-	.	.	8.a\	-ba-	.	.	8a/	8ee\	4cc#\	.
8A\J	.	.	8e\	8cc#\J	.	8ee\J	.	.	8e\	-ba-	.	.	8cc#\	-ba-	8a/J	8ee\J	.	8ee\
.	.	.	.	.	.	.	16A\	.	.	.	16a\	-oth	.	.	.	.	.	.
=5	=5	=5	=5	=5	=5	=5	=5	=5	=5	=5	=5	=5	=5	=5	=5	=5	=5	=5
1D;>	.	2d\	2f#\	1dd	.	1dd;>	1D	-oth	1f#	-oth	1a'>	.	2dd\	-oth	2f#/	2dd\	1dd	1dd;>
.	.	2r;>	2r;>	.	.	.	.	.	.	.	.	.	2r	.	2r	2r	.	.
!	!	!	!	!	!	!	!	!	!	!	!LO:LB:g=original	!	!	!	!	!	!	!
=6	=6	=6	=6	=6	=6	=6||	=6||	=6||	=6||	=6||	=6	=6	=6	=6	=6	=6	=6	=6
!LO:TX:a:Bi:t=allo	!	!LO:TX:a:Bi:t=allo	!LO:TX:a:Bi:t=allo	!LO:TX:a:Bi:t=allo	!	!LO:TX:a:Bi:t=allo	!LO:TX:a:Bi:t=allo.	!	!LO:TX:a:Bi:t=allo.	!	!LO:TX:a:Bi:t=allo.	!	!LO:TX:a:Bi:t=allo.	!	!LO:TX:a:Bi:t=allo	!LO:TX:a:Bi:t=allo	!LO:TX:a:Bi:t=allo	!LO:TX:a:Bi:t=allo
4D\	.	4d\	4a\	4dd\	.	4ff#\	4D/	Ple-	4d\	Ple-	4a\	Ple-	4ff#\	Ple-	4dd\	4ff#\	4dd\	4ff#\
!	!	!	!	!	!	!LO:TX:a:t=|:problem	!	!	!	!	!	!	!	!	!	!	!	!
4A\	.	4c#\	4a\	4cc#\	.	16ee\LL	8A\	-ni-	8c#\	-ni-	8a\	-ni-	8ee\	-ni-	4a/	4ee\	4cc#\	8ee\L
.	.	.	.	.	.	(>16ee\	.	.	.	.	.	.	.	.	.	.	.	.
.	.	.	.	.	.	16dd\	8A\	-sunt	8B\	-sunt	8a\	-sunt	8cc#\	-sunt	.	.	.	16dd\L
.	.	.	.	.	.	16cc#\JJ)	.	.	.	.	.	.	.	.	.	.	.	16cc#\JJ
!	!	!	!	!	!	!	!LO:PB:g=original	!	!	!	!	!	!	!	!	!	!	!
8B\L	.	4.d\	4f#\	4b/	.	4.dd\	8B\L	Cae-	8B\	Cae-	4f#\	Cae-	4dd\	Cae-	4f#/	4dd\	4b/	4.dd\
16A\L	.	.	.	.	.	.	16A\L	.	4A\	-li	.	.	.	.	.	.	.	.
16G\JJ	.	.	.	.	.	.	16G\JJ	.	.	.	.	.	.	.	.	.	.	.
8F#\L	6	.	4a\	4a/	.	.	8F#\	-li	.	.	8a\	-li	8dd\	-li	8r	8r	4a/	.
8D\J	.	8d\	.	.	.	8ff#\	8D\	Cae-	8d\	et	8a\	Cae-	8ff#\	Cea-	8ee\	8aa\	.	8ff#\
!	!	!	!	!	!	!LO:LB:g=original	!	!	!LO:LB:g=original	!	!	!	!LO:LB:g=original	!	!	!	!	!
=7	=7	=7	=7	=7	=7	=7	=7	=7	=7	=7	=7	=7	=7	=7	=7	=7	=7	=7
4G\	6\ 5	4d\	4b\	8g/	.	8ee\	8G\	-li	4B\	ter-	8g\	-li	8ee\	-li	4ee\	4bb\	8g/	8ee\
.	.	.	.	4f#/	.	4dd\	8G\	et	.	.	8f#\	et	8dd\	et	.	.	4f#/	4dd\
!LO:TX:a:t=P:problem:mixed beam	!	!	!	!	!	!	!	!	!	!	!	!	!	!	!	!	!	!
8A\L	.	4c#\	4a\	.	.	.	4A\	ter-	4A\	.	8f#\L	ter-	8dd\L	ter-	8ee\L	8.aa\L	.	.
8AA/J	4 x	.	.	8e/	.	8cc#\	.	.	.	.	8e\J	.	8cc#\J	.	8ee\J	.	8e/	8cc#\
.	3 x	.	.	.	.	.	.	.	.	.	.	.	.	.	.	16aa\Jk	.	.
4D/	.	4d\	4a\	4f#/	.	4dd\	4D/	-ra	4A\	-ra	4f#\	-ra	4dd\	-ra	4ff#\	4aa\	4f#/	4dd\
4r	.	4r	4r	4r	.	32r	4r	.	4r	.	4r	.	4r	.	4r	4r	4r	4r
.	.	.	.	.	.	32d/LLL	.	.	.	.	.	.	.	.	.	.	.	.
.	.	.	.	.	.	(<32e/	.	.	.	.	.	.	.	.	.	.	.	.
.	.	.	.	.	.	32f#/	.	.	.	.	.	.	.	.	.	.	.	.
.	.	.	.	.	.	32g/	.	.	.	.	.	.	.	.	.	.	.	.
.	.	.	.	.	.	32a/	.	.	.	.	.	.	.	.	.	.	.	.
.	.	.	.	.	.	32b/	.	.	.	.	.	.	.	.	.	.	.	.
.	.	.	.	.	.	32cc#/JJJ)	.	.	.	.	.	.	.	.	.	.	.	.
!	!	!	!	!LO:LB:g=original	!	!	!	!	!	!	!	!	!	!	!	!	!	!LO:LB:g=original
=8	=8	=8	=8	=8	=8	=8	=8	=8	=8	=8	=8	=8	=8	=8	=8	=8	=8	=8
!	!	!	!	!	!	!LO:TX:a:t=|:problem	!	!	!	!	!	!	!	!	!	!	!	!
2BB/	6\	8d\L	8a\L	8a/L	.	16dd\LL	8BB/	glo-	8d\	glo-	8a\	glo-	8dd\	glo-	8dd\L	8aa\L	4.dd\	4aa\
.	.	.	.	.	.	(>16dd\	.	.	.	.	.	.	.	.	.	.	.	.
.	.	8d\	8a\	8a/	.	16cc#\	16BB/	-ri-	16d\	-ri-	16a\	-ri-	16dd\	-ri-	8dd\	8aa\	.	.
.	.	.	.	.	.	16dd\JJ)	16BB/	-a	16d\	-a	16a\	-a	16dd\	-a	.	.	.	.
!	!	!	!	!	!	!LO:TX:a:t=|:problem	!	!	!	!	!	!	!	!	!	!	!	!
.	.	8d\	8g#X\	8g#X/	.	16dd\LL	4BB/	tu-	8d\L	tu-	4g#X\	tu-	4dd\	tu-	8ee\	8gg#X\	.	4gg#X\
.	.	.	.	.	.	(>16dd\	.	.	.	.	.	.	.	.	.	.	.	.
.	.	8d\J	8g#\J	8g#/J	.	16cc#\	.	.	8e\J	.	.	.	.	.	8ee\J	8gg#\J	8dd\	.
.	.	.	.	.	.	16dd\JJ)	.	.	.	.	.	.	.	.	.	.	.	.
!	!	!	!	!	!	!LO:TX:a:t=P:problem:mixed beam	!	!	!	!	!	!	!	!	!	!	!	!
4AA/	.	4c#\	4a\	4a/	.	8cc#\L	4AA/	-a	4e\	-a	4a\	-a	8cc#\	-a	4ee\	4aa\	4cc#\	4aa\
.	.	.	.	.	.	8ee\	.	.	.	.	.	.	8ee\	Ple-	.	.	.	.
4r	.	4r	4r	4r	.	8a/	4r	.	4r	.	4r	.	8a\	-ni-	4r	4r	4r	4r
.	.	.	.	.	.	8b/J	.	.	.	.	.	.	8b\	-sunt	.	.	.	.
!LO:LB:g=original	!	!	!	!	!	!	!	!	!	!	!	!	!	!	!	!	!LO:LB:g=original	!
=9	=9	=9	=9	=9	=9	=9	=9	=9	=9	=9	=9	=9	=9	=9	=9	=9	=9	=9
1r	.	1r	1r	8r	.	2cc#\	1r	.	1r	.	8r	.	4cc#\	Cae-	1r	1r	1r	1r
!	!	!	!	!	!	!	!	!	!	!	!LO:TX:a:Bi:t=Solo.	!	!	!	!	!	!	!
!	!	!	!	!	!LO:DY:b:t=%so	!	!	!	!	!	!	!	!	!	!	!	!	!
.	.	.	.	8a/L	p	.	.	.	.	.	8a\	Ple-	.	.	.	.	.	.
!	!	!	!	!	!	!	!	!	!	!	!LO:SIC:s:8g#:v	!	!	!	!	!	!	!
.	.	.	.	8g#X/	.	.	.	.	.	.	8gn\	-ni-	8cc#\	-li	.	.	.	.
.	.	.	.	8e/J	.	.	.	.	.	.	8e\	-sunt	8cc#\	Cae-	.	.	.	.
.	.	.	.	8f#/L	.	2dd\	.	.	.	.	8f#\	Cae-	8dd\	-li	.	.	.	.
.	.	.	.	8f#/	.	.	.	.	.	.	16f#\	-li	8dd\	et	.	.	.	.
.	.	.	.	.	.	.	.	.	.	.	16f#\	et	.	.	.	.	.	.
!	!	!	!	!	!	!	!	!	!	!	!LO:PB:g=original	!	!	!	!	!	!	!
.	.	.	.	8G#X/	.	.	.	.	.	.	4fn\	ter-	4dd\	ter-	.	.	.	.
.	.	.	.	8G#/J	.	.	.	.	.	.	.	.	.	.	.	.	.	.
=10	=10	=10	=10	=10	=10	=10	=10	=10	=10	=10	=10	=10	=10	=10	=10	=10	=10	=10
!	!	!	!	!	!	!LO:TX:a:t=|:problem	!	!	!	!	!	!	!	!	!	!	!	!
2r	.	2r	2r	8A/L	.	8cc#\L	2r	.	2r	.	4e\	-ra	4cc#\	-ra	2r	2r	2r	2r
!	!	!	!	!	!LO:DY:b:t=%sor	!	!	!	!	!	!	!	!	!	!	!	!	!
.	.	.	.	(<32a/LL	f	(>32a\LL	.	.	.	.	.	.	.	.	.	.	.	.
.	.	.	.	32b/	.	32b\	.	.	.	.	.	.	.	.	.	.	.	.
.	.	.	.	32cc#/	.	32cc#\	.	.	.	.	.	.	.	.	.	.	.	.
.	.	.	.	32dd/JJJ)	.	32dd\JJJ)	.	.	.	.	.	.	.	.	.	.	.	.
!	!	!	!	!LO:TX:a:t=|:problem	!	!LO:TX:a:t=|:problem	!	!	!	!	!	!	!	!	!	!	!	!
.	.	.	.	8ee\L	.	8ee\L	.	.	.	.	4r	.	4r	.	.	.	.	.
.	.	.	.	(>32cc#\LL	.	(>32cc#\LL	.	.	.	.	.	.	.	.	.	.	.	.
.	.	.	.	32dd\	.	32dd\	.	.	.	.	.	.	.	.	.	.	.	.
.	.	.	.	32ee\)	.	32ee\	.	.	.	.	.	.	.	.	.	.	.	.
.	.	.	.	32ff#\JJJ	.	32ff#\JJJ)	.	.	.	.	.	.	.	.	.	.	.	.
!	!	!	!	!	!	!LO:TX:a:t=|:problem	!	!	!	!	!	!	!	!	!	!	!	!
8r	.	8r	8r	8gg\L	.	16gg\LL	8r	.	8r	.	8r	.	8r	.	8r	8r	8r	8r
.	.	.	.	.	.	(>16gg\	.	.	.	.	.	.	.	.	.	.	.	.
8A\L	.	4e\	4g\	8cc#\	.	16ff#\	8A\	Ple-	8c#\	Ple-	8g\	Ple-	8ee\	Ple-	8a/L	8ee\L	4ee\	8gg\
.	.	.	.	.	.	16gg\JJ)	.	.	.	.	.	.	.	.	.	.	.	.
!	!	!	!	!	!	!LO:TX:a:t=|:problem	!	!	!	!	!	!	!	!	!	!	!	!
8c#\	.	.	.	8ee\	.	16gg\LL	8c#\	-ni-	8e\	-ni-	8g\	-ni-	8ee\	-ni	8a/	8ee\	.	4gg\
.	.	.	.	.	.	(>16gg\	.	.	.	.	.	.	.	.	.	.	.	.
8A\J	.	8e\	8g\	8cc#\J	.	16ff#\	8A\	-(sun)t	8c#\	-s(un)t	8g\	-s(unt)	8ee\	sunt	8a/J	8ee\J	8ee\	.
.	.	.	.	.	.	16gg\JJ)	.	.	.	.	.	.	.	.	.	.	.	.
!	!	!LO:LB:g=original	!LO:LB:g=original	!	!	!	!	!	!	!	!	!	!	!	!	!	!	!
!	!	!	!	!	!	!	!	!	!	!	!	!	!	!	!LO:LB:g=original	!LO:LB:g=original	!	!
=11	=11	=11	=11	=11	=11	=11	=11	=11	=11	=11	=11	=11	=11	=11	=11	=11	=11	=11
!LO:TX:a:t=P:problem:mixed beam	!	!	!	!	!	!	!LO:TX:a:t=P:problem:mixed beam	!	!	!	!	!	!	!	!	!	!	!
!	!	!	!	!LO:TX:a:t=P:problem:mixed beam	!	!	!	!	!	!	!	!	!	!	!	!	!	!
!	!	!	!	!	!	!LO:TX:a:t=|:problem	!	!	!	!	!	!	!	!	!	!	!	!
8d\L	.	8d\L	8f#\L	8a/L	.	16ff#\LL	8d\L	Cae-	4A/	Cae-	4f#\	Cae-	4dd\	Cae-	4dd\	8ff#\L	4.dd\	4ff#\
.	.	.	.	.	.	(>16ff#\	.	.	.	.	.	.	.	.	.	.	.	.
8D/	.	8d\J	8f#\J	8a/	.	16ee\	8D/J	.	.	.	.	.	.	.	.	8ff#\	.	.
.	.	.	.	.	.	16ff#\JJ)	.	.	.	.	.	.	.	.	.	.	.	.
!	!	!	!	!	!	!LO:TX:a:t=|:problem	!	!	!	!	!	!	!	!	!	!	!	!
8F#/	6	4d\	4f#\	8d/	.	16ff#\LL	8F#\	-li	8A/	-li	8a\	-li	8dd\	-li	8dd\L	8aa\	.	8aa\L
.	.	.	.	.	.	(>16ff#\	.	.	.	.	.	.	.	.	.	.	.	.
!	!	!	!	!	!	!	!	!	!	!	!	!	!LO:LB:g=original	!	!	!	!	!
8D/J	.	.	.	8dd\J	.	16ee\	8D\	et	8A/	et	8f#\	et	8dd\	et	8dd\J	8ff#\J	8dd\	8ff#\J
.	.	.	.	.	.	16ff#\JJ)	.	.	.	.	.	.	.	.	.	.	.	.
!LO:TX:a:t=P:problem:mixed beam	!	!	!	!	!	!	!	!	!	!	!	!	!	!	!	!	!	!
8A\L	.	4c#\	4e\	8dd\L	.	8ff#\L	8A\	ter-	8A/	ter-	8f#\	ter-	8dd\	ter-	4a/	4ee\	8dd\L	8ff#t>\L
8AA/J	.	.	.	8cc#\J	.	8ee\J	8AA/	-ra	8A/	-ra	8e\	.	8cc#\	-ra	.	.	8cc#\J	8ee\J
!LO:TX:a:t=P:problem:mixed beam	!	!	!	!	!	!	!LO:TX:a:t=P:problem:mixed beam	!	!	!	!	!	!	!	!	!	!	!
16A\LL	.	8r	8r	4cc#\	.	4cc#\	16A\LL	glo-	[<4A/	glo-	4e\	-ra	4cc#\	glo-	8a/L	8ee\L	8r	8r
16AA/	.	.	.	.	.	.	16AA/	.	.	.	.	.	.	.	.	.	.	.
16A\	.	8e\	8a\	.	.	.	16A\	.	.	.	.	.	.	.	8a/J	8ee\J	8cc#\	8ee\
16G\JJ	.	.	.	.	.	.	16G\JJ	.	.	.	.	.	.	.	.	.	.	.
!	!	!	!	!	!	!LO:LB:g=original	!	!	!	!	!	!	!	!	!	!	!	!
=12	=12	=12	=12	=12	=12	=12	=12	=12	=12	=12	=12	=12	=12	=12	=12	=12	=12	=12
16F#\LL	6	4f#\	4a\	4dd\	.	4dd\	16F#\LL	.	8.A/]	.	8.f#\	glo-	8.dd\	.	4dd\	4ff#\	4dd\	4ff#\
16D\	.	.	.	.	.	.	16D\	.	.	.	.	.	.	.	.	.	.	.
16E\	.	.	.	.	.	.	16E\	.	.	.	.	.	.	.	.	.	.	.
16F#\JJ	.	.	.	.	.	.	16F#\JJ	.	16A/	-ri-	16f#\	-ri-	16dd\	-ri-	.	.	.	.
!	!	!	!	!	!	!	!LO:LB:g=original	!	!	!	!	!	!	!	!	!	!	!
16G\LL	.	4r	4r	16dd\LL	.	16dd\LL	16G\LL	.	4A/	-a	4f#\	-a,	8dd\	-a	4r	4r	4r	4r
16A\	.	.	.	16cc#\	.	16cc#\	16A\	.	.	.	.	.	.	.	.	.	.	.
16B\	.	.	.	16dd\	.	16dd\	16B\	.	.	.	.	.	16dd\LL	glo-	.	.	.	.
16c#\JJ	.	.	.	16ee\JJ	.	16ee\JJ	16c#\JJ	.	.	.	.	.	16ee\JJ	.	.	.	.	.
!LO:TX:a:t=P:problem:mixed beam	!	!	!	!	!	!	!	!	!	!	!	!	!	!	!	!	!	!
8d\L	.	4.f#\	4.a\	16ff#\LL	.	16ff#\LL	8d\	.	4d\	glo-	4a\	glo-	4.ff#\	.	2r	2r	4.dd\	16ff#\LL
.	.	.	.	16dd\	.	16dd\	.	.	.	.	.	.	.	.	.	.	.	16dd\
8D/	.	.	.	16ee\	.	16ee\	16D/	-ri-	.	.	.	.	.	.	.	.	.	16ee\
.	.	.	.	16ff#\JJ	.	16ff#\JJ	16D/	-a	.	.	.	.	.	.	.	.	.	16ff#\JJ
8d\	.	.	.	16gg\LL	.	16gg\LL	8d\	glo-	8f#\	-ri-	8a\	-ri-	.	.	.	.	.	16gg\LL
.	.	.	.	16aa\	.	16aa\	.	.	.	.	.	.	.	.	.	.	.	16aa\
8c#\J	.	8e\	8a\	16bb\	.	16bb\	16c#\	-ri-	8f#\	-a	8a\	-a	16ee\	-ri-	.	.	8dd\	16bb\
.	.	.	.	16ccc#\JJ	.	16ccc#\JJ	16c#\	-a	.	.	.	.	16ee\	-a	.	.	.	16ccc#\JJ
!	!	!	!	!	!	!	!	!	!LO:LB:g=original	!	!	!	!	!	!	!	!	!
=13	=13	=13	=13	=13	=13	=13	=13	=13	=13	=13	=13	=13	=13	=13	=13	=13	=13	=13
!LO:TX:a:t=P:problem:mixed beam	!	!	!	!	!	!	!	!	!	!	!	!	!	!	!	!	!	!
8B\L	.	8d\L	8b\L	8ddd\L	.	8ddd\	8B\	glo-	8f#\	glo-	8d\	glo-	8dd\	glo-	8r	8r	8dd\	8ddd\L
8G\	6 5	8f#\J	8b\J	8ff#\J	.	4ddd\	16G\	-ri-	16e\	-ri-	16b\	-ri-	16dd\	-ri-	8dd\L	8ee\L	4dd\	8ff#\J
.	.	.	.	.	.	.	16G\	-a	16e\	-a	16b\	-a	16dd\	-a	.	.	.	.
8A\	.	4e\	4b\	4ee\	.	.	4A\	tu-	4e\	tu-	8b\L	tu-	8dd\L	tu-	8a\	8ee\	.	4ee\
8AA/J	4 x	.	.	.	.	8ccc#\	.	.	.	.	8a\J	.	8cc#\J	.	8a\J	8ee\J	8cc#\	.
.	3 x	.	.	.	.	.	.	.	.	.	.	.	.	.	.	.	.	.
!	!	!	!	!LO:LB:g=original	!	!	!	!	!	!	!	!	!	!	!	!	!	!
!	!	!	!	!LO:TX:a:t=P:problem:mixed beam	!	!	!	!	!	!	!	!	!	!	!	!	!LO:TX:a:t=P:problem:mixed beam	!
4D\	.	4f#\	4a\	8dd\L	.	8ddd\L	4D/	-a	4f#\	-a	8a\	-a	8dd\	-a	4f#/	4dd\	8dd\L	8dd\L
.	.	.	.	8f#/J	.	8dd\J	.	.	.	.	8a\	O-	8dd\	O-	.	.	8f#/J	8dd\J
8r	.	8r	8r	16a/LL	.	16ccn\LL	8r	.	8r	.	16a\LL	-san-	16ccn\LL	-San-	8r	8r	16g/LL	16ccn\LL
.	.	.	.	16g/J	.	16b\J	.	.	.	.	16g\JJ	.	16b\JJ	.	.	.	16e/J	16b\J
8F#\	6 x	8d\	8a\	8a/J	.	8cc\J	8F#\	O-	8A\	o-	8a\	-na	8cc\	-na	8ff#\	8aa\	8a/J	8cc\J
!	!	!	!	!	!	!	!	!	!	!	!LO:LB:g=original	!	!	!	!	!	!	!
=14	=14	=14	=14	=14	=14	=14	=14	=14	=14	=14	=14	=14	=14	=14	=14	=14	=14	=14
16G\LL	.	8d\L	8b\L	8r	.	8r	16G\LL	-San-	16B\LL	-san-	8r	.	8r	.	4dd\	4.bb\	8r	8r
16F#\J	.	.	.	.	.	.	16F#\JJ	.	16A\JJ	.	.	.	.	.	.	.	.	.
8G\J	.	8d\J	8b\J	8d/L	.	8b\L	16G\	-na	8B\	-na	8g\	o-	8b\	O-	.	.	8g/L	8b\L
.	.	.	.	.	.	.	16G\	O-	.	.	.	.	.	.	.	.	.	.
8E\L	.	8r	8r	8g/	.	8ee\	8E\	-san-	8r	.	8g\	-san-	8ee\	-San-	4ee\	.	8b/	8ee\
16F#\L	.	8e\	8g\	8g/J	.	8dd\J	8G\	-na	4e\	in	8b\	-na	8dd\	-na	.	8bb\	8b/J	8dd\J
16G\JJ	.	.	.	.	.	.	.	.	.	.	.	.	.	.	.	.	.	.
!LO:TX:a:t=P:problem:mixed beam	!	!	!	!	!	!	!	!	!	!	!	!	!	!	!	!	!	!
8A\L	.	8c#\	8g\L	8g/L	.	8cc#X\	8A\	in	.	.	8a\	in	8cc#\	in	8ee\L	16aa\LL	16a/LL	8cc#X\
.	.	.	.	.	.	.	.	.	.	.	.	.	.	.	.	16gg\J	16g/J	.
8d\	.	4d\	8f#\J	8f#/J	.	4dd\	8d\	ex-	8f#\	ex-	8a\	ex-	8dd\	ex-	8dd\J	8ff#\J	8f#/J	4dd\
8A\	.	.	4e\	4eT>/	.	.	4A\	-cel-	4e\	-cel-	4a\	-cel-	8dd\L	-cel-	4a/	4ee\	4e/	.
8AA/J	4	8c#\	.	.	.	8cc#\	.	.	.	.	.	.	8cc#\J	.	.	.	.	8cc#\
.	3	.	.	.	.	.	.	.	.	.	.	.	.	.	.	.	.	.
!	!	!	!	!	!	!	!	!	!	!	!	!	!	!	!	!	!	!LO:LB:g=original
=15	=15	=15	=15	=15	=15	=15	=15	=15	=15	=15	=15	=15	=15	=15	=15	=15	=15	=15
4D/	.	4d\	4f#\	4d/	.	4dd\	4D/	-sis	4f#\	-sis	4a\	-sis	4dd\	-sis	4f#/	4dd\	4d/	4dd\
4r	.	4r	4r	4r	.	4r	4r	.	4r	.	4r	.	4r	.	4r	4r	4r	4r
2r	.	2r	2r	2r	.	2r	2r	.	2r	.	2r	.	2r	.	2r	2r	2r	2r
!LO:LB:g=original	!	!	!	!	!	!	!LO:LB:g=original	!	!LO:LB:g=original	!	!O:LB:g=original	!	!LO:LB:g=original	!	!	!	!	!
=16||	=16||	=16||	=16||	=16||	=16||	=16||	=16||	=16||	=16||	=16||	=16||	=16||	=16||	=16||	=16||	=16||	=16||	=16||
*clefF4	*	*	*	*	*	*	*clefF4	*	*clefC4	*	*clefC3	*	*clefC1	*	*	*	*	*
*k[f#c#g#]	*	*	*	*	*	*	*k[f#c#g#]	*	*k[f#c#g#]	*	*k[f#c#g#]	*	*k[f#c#g#]	*	*	*	*	*
*M4/4	*	*	*	*	*	*	*M4/4	*	*M4/4	*	*M4/4	*	*M4/4	*	*	*	*	*
*met(c)	*	*	*	*	*	*	*met(c)	*	*met(c)	*	*met(c)	*	*met(c)	*	*	*	*	*
!	!	!	!LO:TX:a:Bi:t=OSacrum Tacet	!LO:TX:a:Bi:t=O Sacrum Convivium Tacet	!	!LO:TX:a:Bi:t=O Sacrum Convivium \nTacet	!	!	!	!	!	!	!	!	!LO:TX:a:Bi:t=Benedictus \nO sacrum convivium Tacet	!LO:TX:a:Bi:t=Benedictus\nO Sacrum convivium Tacet	!	!
!	!	!LO:TX:a:Bi:t=O Sacrum \nConvivium et Benedictus \nTacet	!	!	!	!	!	!	!	!	!	!	!	!	!	!	!LO:TX:a:Bi:t=O Sacrum Convivium\nBenedictus Tacet	!LO:TX:a:Bi:t=O Sacrum convivium Tacet
!	!	!	!	!	!	!	!	!	!LO:TX:a:Bi:t=Ad Elevationem:problem:'Ad Elevationem' znajduje się po lewej stronie przed kluczem i oznaczeniem metrum	!	!LO:TX:a:Bi:t=Ad Elevationem:problem:'Ad Elevationem' znajduje się na poprzedniej pięciolinii przed łamaniem systemu	!	!	!	!	!	!	!
!LO:TX:b:Bi:t=ad elevationem:rj	!	!	!	!	!	!	!LO:TX:a:Bi:t=Ad Elevationem:problem:'Ad Elevationem' znajduje się po lewej stronie przed kluczem i oznaczeniem metrum	!	!	!	!	!	!	!	!	!	!	!
!	!	!	!	!	!	!	!	!	!	!	!	!	!LO:TX:a:Bi:t=Sub Elevationem:problem:'Sub Elevationem' znajduje się po lewej stronie przed kluczem i oznaczeniem metrum	!	!	!	!	!
!LO:TX:a:Bi:t=ad(agio)&colon;:rj	!	!	!	!	!	!	!LO:TX:a:Bi:t=Ada(gio)	!	!LO:TX:a:Bi:t=ada(gio).	!	!	!	!LO:TX:a:Bi:t=ada(gio).:rj	!	!	!	!	!
!LO:TX:a:Bi:t=pedale	!	!	!	!	!	!	!	!	!	!	!	!	!	!	!	!	!	!
2A\	.	1ryy	1ryy	1ryy	.	1ryy	2A\	O	2e\	O	2a\	O	2cc#\	O	1ryy	1ryy	1ryy	1ryy
4E\	.	.	.	.	.	.	4E\	Sa-	4e\	Sa-	4g#\	Sac-	4b\	Sac-	.	.	.	.
8F#\L	.	.	.	.	.	.	8F#\	-crum	8c#\	-crum	8a\	-rum	8a\	-rum	.	.	.	.
8D\J	.	.	.	.	.	.	8D\	Con-	8f#\	Con-	8f#\	Con-	8dd\	Con-	.	.	.	.
=17	=17	=17	=17	=17	=17	=17	=17	=17	=17	=17	=17	=17	=17	=17	=17	=17	=17	=17
2E\	.	1ryy	1ryy	1ryy	.	1ryy	4.E\	-vi-	4.e\	-vi-	4.a\	-vi-	4cc#\	-vi-	1ryy	1ryy	1ryy	1ryy
.	.	.	.	.	.	.	.	.	.	.	.	.	8.b\	-vi-	.	.	.	.
.	.	.	.	.	.	.	8E\	-vi-	8e\	-vi-	8g#\	-vi-	.	.	.	.	.	.
.	.	.	.	.	.	.	.	.	.	.	.	.	16b\	-um	.	.	.	.
2AA/	.	.	.	.	.	.	4AA/	-um	4c#\	-um	4a\	-um	4a\	.	.	.	.	.
.	.	.	.	.	.	.	4r	.	4r	.	8a\	in	8cc#\	in	.	.	.	.
.	.	.	.	.	.	.	.	.	.	.	8a\	quo	8cc#\	quo	.	.	.	.
=18	=18	=18	=18	=18	=18	=18	=18	=18	=18	=18	=18	=18	=18	=18	=18	=18	=18	=18
2E\	.	1ryy	1ryy	1ryy	.	1ryy	4r	.	4r	.	8a\L	Ch(ris)-	8cc#\L	Ch(ris)-	1ryy	1ryy	1ryy	1ryy
.	.	.	.	.	.	.	.	.	.	.	8g#\J	.	8b\J	.	.	.	.	.
.	.	.	.	.	.	.	8B\	in	8d\	in	4g#\	-tus	4b\	-tus	.	.	.	.
.	.	.	.	.	.	.	8B\	quo	8d\	quo	.	.	.	.	.	.	.	.
2AA/	.	.	.	.	.	.	8B\L	Chri-	8d\L	Ch(ris)-	4r	.	4r	.	.	.	.	.
.	.	.	.	.	.	.	8A\J	.	8c#\J	.	.	.	.	.	.	.	.	.
.	.	.	.	.	.	.	4A\	-stus	4c#\	-tus	8cc#\	in	8ee\	in	.	.	.	.
.	.	.	.	.	.	.	.	.	.	.	8cc#\	quo	8ee\	quo	.	.	.	.
=19	=19	=19	=19	=19	=19	=19	=19	=19	=19	=19	=19	=19	=19	=19	=19	=19	=19	=19
2D\	.	1ryy	1ryy	1ryy	.	1ryy	2r	.	2r	.	8dd\	in	8ff#\	in	1ryy	1ryy	1ryy	1ryy
.	.	.	.	.	.	.	.	.	.	.	16dd\LL	quo	16ff#\LL	quo	.	.	.	.
.	.	.	.	.	.	.	.	.	.	.	16dd\JJ	.	16ee\JJ	.	.	.	.	.
!	!	!	!	!	!	!	!	!	!	!	!	!	!LO:LB:g=original	!	!	!	!	!
.	.	.	.	.	.	.	.	.	.	.	8b\	Chr(is)-	8dd\	Ch(ri-	.	.	.	.
.	.	.	.	.	.	.	.	.	.	.	8a\	-tus	8cc#\	-s)tus	.	.	.	.
2E\	.	.	.	.	.	.	4r	.	4r	.	8.a\	su-	8.cc#\	su-	.	.	.	.
.	.	.	.	.	.	.	.	.	.	.	16g#\	-mi-	16b\	-mi-	.	.	.	.
.	.	.	.	.	.	.	4G#\	re-	4e\	re-	4g#\	-tur	4b\	-tur	.	.	.	.
=20	=20	=20	=20	=20	=20	=20	=20	=20	=20	=20	=20	=20	=20	=20	=20	=20	=20	=20
.	.	.	.	.	.	.	.	.	8qqd/	.	.	.	.	.	.	.	.	.
2AA/	.	1ryy	1ryy	1ryy	.	1ryy	8.A\	-co-	8.c#\	-co-	2r	.	2r	.	1ryy	1ryy	1ryy	1ryy
.	.	.	.	.	.	.	16A\	-li-	16c#\	-li-	.	.	.	.	.	.	.	.
!	!	!	!	!	!	!	!LO:LB:g=original	!	!	!	!	!	!	!	!	!	!	!
.	.	.	.	.	.	.	8A\	-tur	8c#\	-tur	.	.	.	.	.	.	.	.
.	.	.	.	.	.	.	8F#\	me-	8f#\	me-	.	.	.	.	.	.	.	.
!	!	!	!	!	!	!	!	!	!LO:LB:g=original	!	!	!	!	!	!	!	!	!
.	.	.	.	.	.	.	.	.	8qqe/	.	.	.	.	.	.	.	.	.
2BB/	.	.	.	.	.	.	8.B\	-mo-	8.d#X\	-mo-	8r	.	8r	.	.	.	.	.
.	.	.	.	.	.	.	.	.	.	.	8f#\L	paſ-	8dd#X\L	paſ-	.	.	.	.
.	.	.	.	.	.	.	16B\	-ri-	16d#\	-ri-	.	.	.	.	.	.	.	.
.	.	.	.	.	.	.	4B\	-a	4d#\	-a	8g#\J	.	8ee\J	.	.	.	.	.
.	.	.	.	.	.	.	.	.	.	.	8a\	-si-	8ff#\	-si-	.	.	.	.
!	!	!	!	!	!	!	!	!	!	!	!LO:LB:g=original	!	!	!	!	!	!	!
=21	=21	=21	=21	=21	=21	=21	=21	=21	=21	=21	=21	=21	=21	=21	=21	=21	=21	=21
2E\	.	1ryy	1ryy	1ryy	.	1ryy	8r	.	8r	.	4g#\	-o-	4.ee\	-o-	1ryy	1ryy	1ryy	1ryy
.	.	.	.	.	.	.	8G#\L	paſ-	8B\L	paſ-	.	.	.	.	.	.	.	.
.	.	.	.	.	.	.	8F#\J	.	8A\J	.	4g#\	-nis	.	.	.	.	.	.
.	.	.	.	.	.	.	8E\	-si-	8G#/	-si-	.	.	8ee\	-nis	.	.	.	.
4A\	.	.	.	.	.	.	8A\	-o-	8c#\	-o-	2f#\	e-	4ee\	e-	.	.	.	.
.	.	.	.	.	.	.	8A\	-nis	8c#\	-nis	.	.	.	.	.	.	.	.
!LO:TX:a:t=P:problem:mixed beam	!	!	!	!	!	!	!	!	!	!	!	!	!	!	!	!	!	!
8B\L	.	.	.	.	.	.	4B\	e-	4B\	e-	.	.	4dd#X\	.	.	.	.	.
8BB/J	.	.	.	.	.	.	.	.	.	.	.	.	.	.	.	.	.	.
=22	=22	=22	=22	=22	=22	=22	=22	=22	=22	=22	=22	=22	=22	=22	=22	=22	=22	=22
4E\	.	1ryy	1ryy	1ryy	.	1ryy	4E\	-jus	4B\	-jus	4g#\	-jus	4ee\	-jus	1ryy	1ryy	1ryy	1ryy
8E\L	.	.	.	.	.	.	4r	.	4r	.	4r	.	4r	.	.	.	.	.
8D\J	.	.	.	.	.	.	.	.	.	.	.	.	.	.	.	.	.	.
4C#/	.	.	.	.	.	.	2r	.	2r	.	8cc#\	mens	8ee\	mens	.	.	.	.
.	.	.	.	.	.	.	.	.	.	.	8cc#\	im-	8ee\	im-	.	.	.	.
4F#\	.	.	.	.	.	.	.	.	.	.	8b\	-ple-	8dd\	-ple-	.	.	.	.
.	.	.	.	.	.	.	.	.	.	.	8a#X\	-tur	8cc#\	-tur	.	.	.	.
=23	=23	=23	=23	=23	=23	=23	=23	=23	=23	=23	=23	=23	=23	=23	=23	=23	=23	=23
2BB/	.	1ryy	1ryy	1ryy	.	1ryy	4r	.	4r	.	8.b\	gra-	8.dd\	gra-	1ryy	1ryy	1ryy	1ryy
.	.	.	.	.	.	.	.	.	.	.	16f#\	-ti-	16cc#\	-ti-	.	.	.	.
.	.	.	.	.	.	.	[>4B\	et	[>4d\	et	4f#\	-a	4b\	-a	.	.	.	.
2E\	.	.	.	.	.	.	8B\]	.	8d\]	.	2r	.	2r	.	.	.	.	.
.	.	.	.	.	.	.	8G#\	fu-	8B\	fu-	.	.	.	.	.	.	.	.
.	.	.	.	.	.	.	8A\	-tu-	8c#\	-tu-	.	.	.	.	.	.	.	.
.	.	.	.	.	.	.	8B\	-ra	8d\	-ra	.	.	.	.	.	.	.	.
=24	=24	=24	=24	=24	=24	=24	=24	=24	=24	=24	=24	=24	=24	=24	=24	=24	=24	=24
2AA/	.	1ryy	1ryy	1ryy	.	1ryy	8.B\	glo-	8.d\	glo-	4r	.	4r	.	1ryy	1ryy	1ryy	1ryy
.	.	.	.	.	.	.	16A\	-ri-	16c#\	-ri-	.	.	.	.	.	.	.	.
.	.	.	.	.	.	.	4A\	-a	4c#\	-ae	4cc#\	no-	4ee\	no-	.	.	.	.
4BB/	.	.	.	.	.	.	8r	.	8r	.	4b\	-bis	4dd\	-bis	.	.	.	.
.	.	.	.	.	.	.	8G#\L	no-	8B\L	no-	.	.	.	.	.	.	.	.
4EE/	.	.	.	.	.	.	8A\	.	8c#\	.	4r	.	4r	.	.	.	.	.
.	.	.	.	.	.	.	8B\J	.	8d\J	.	.	.	.	.	.	.	.	.
!	!	!	!	!	!	!	!	!	!	!	!	!	!LO:LB:g=original	!	!	!	!	!
=25	=25	=25	=25	=25	=25	=25	=25	=25	=25	=25	=25	=25	=25	=25	=25	=25	=25	=25
2AA/	.	1ryy	1ryy	1ryy	.	1ryy	4A\	-bis	4c#\	-bis	4r	.	4r	.	1ryy	1ryy	1ryy	1ryy
.	.	.	.	.	.	.	4r	.	4r	.	4cc#\	pig-	4ee\	pi-	.	.	.	.
!	!	!	!	!	!	!	!LO:LB:g=original	!	!	!	!	!	!	!	!	!	!	!
4BB/	.	.	.	.	.	.	8r	.	8r	.	4b\	-nus	4dd\	-gnus	.	.	.	.
.	.	.	.	.	.	.	8G#\L	da-	8B\L	da-	.	.	.	.	.	.	.	.
4EE/	.	.	.	.	.	.	8A\	.	8c#\	.	4r	.	4r	.	.	.	.	.
.	.	.	.	.	.	.	8B\J	.	8d\J	.	.	.	.	.	.	.	.	.
!	!	!	!	!	!	!	!	!	!LO:LB:g=original	!	!	!	!	!	!	!	!	!
=26	=26	=26	=26	=26	=26	=26	=26	=26	=26	=26	=26	=26	=26	=26	=26	=26	=26	=26
2AA/	.	1ryy	1ryy	1ryy	.	1ryy	4A\	-tur	4c#\	-tur	8r	.	8r	.	1ryy	1ryy	1ryy	1ryy
.	.	.	.	.	.	.	.	.	.	.	4cc#\	no-	4ee\	no-	.	.	.	.
.	.	.	.	.	.	.	8AA/	no-	4r	.	.	.	.	.	.	.	.	.
.	.	.	.	.	.	.	8AA/	-bis	.	.	8cc#\	-bis	8ee\	-bis	.	.	.	.
2D\	.	.	.	.	.	.	4.D\	pi-	4r	.	4a\	pig-	8.ff#\	no-	.	.	.	.
.	.	.	.	.	.	.	.	.	.	.	.	.	16ee\	-bis	.	.	.	.
.	.	.	.	.	.	.	.	.	8B\	pi-	4a\	-nus	8dd\L	pi-	.	.	.	.
.	.	.	.	.	.	.	8D\	-gnus	8B\	-gnus	.	.	16cc#\L	-gnus	.	.	.	.
.	.	.	.	.	.	.	.	.	.	.	.	.	16b\JJ	.	.	.	.	.
=27	=27	=27	=27	=27	=27	=27	=27	=27	=27	=27	=27	=27	=27	=27	=27	=27	=27	=27
2E\	.	1ryy	1ryy	1ryy	.	1ryy	2E\	da-	4c#\	da-	4a\	da-	4a\	da-	1ryy	1ryy	1ryy	1ryy
.	.	.	.	.	.	.	.	.	4d\	.	4g#\	.	4b\	.	.	.	.	.
2AA/	.	.	.	.	.	.	4AA/	-tur	4c#\	-tur	4a\	-tur	4a\	-tur	.	.	.	.
.	.	.	.	.	.	.	4r	.	4r	.	4r	.	4r	.	.	.	.	.
==	==	==	==	==	==	==	==	==	==	==	==	==	==	==	==	==	==	==
*-	*-	*-	*-	*-	*-	*-	*-	*-	*-	*-	*-	*-	*-	*-	*-	*-	*-	*-
!!title: @{OTL};
!!!RDF**kern: > = above
!!!RDF**kern: < = below
!!!EED: Wojciech Jakubiak-Danek
!!!EST: 2021-01-09
!!!URL-scan: http://repozytorium.nifc.pl/skany/pl-kk-nut--i-473
!!!ONB-nifc: UWAGA: części Mszy: 1. Kyrie, 2. Gloria, 3. Patrem, 4. Sanctus, 5. Benedictus, 6. Osanna, 7. Agnus, 8. Dona
!!!ENC: Berenika Jozajtis
!!!END: 2021-01-07
